astro/public/img/footer/github.svg

<?xml version="1.0" encoding="UTF-8"?>
<svg width="40px" height="38.3339064px" viewBox="0 0 40 38.3339064" version="1.1" xmlns="http://www.w3.org/2000/svg" xmlns:xlink="http://www.w3.org/1999/xlink">
    <title>github</title>
    <g id="Page-1" stroke="none" stroke-width="1" fill="none" fill-rule="evenodd">
        <g id="github" fill="#94A3B8" fill-rule="nonzero">
            <path d="M20,0 C8.95,0 0,8.8 0,19.6533333 C0,28.3383333 5.73,35.7033333 13.675,38.3 C14.675,38.485 15.0416667,37.8766667 15.0416667,37.355 C15.0416667,36.8883333 15.025,35.6516667 15.0166667,34.0133333 C9.45333333,35.1983333 8.28,31.3766667 8.28,31.3766667 C7.37,29.1083333 6.055,28.5016667 6.055,28.5016667 C4.24333333,27.2833333 6.195,27.3083333 6.195,27.3083333 C8.20333333,27.445 9.25833333,29.3333333 9.25833333,29.3333333 C11.0416667,32.3383333 13.94,31.47 15.0833333,30.9683333 C15.2633333,29.6966667 15.7783333,28.8316667 16.35,28.34 C11.9083333,27.8483333 7.24,26.1583333 7.24,18.6283333 C7.24,16.4833333 8.015,14.73 9.29833333,13.355 C9.07333333,12.8583333 8.39833333,10.86 9.47333333,8.15333333 C9.47333333,8.15333333 11.1483333,7.62666667 14.9733333,10.1683333 C16.5733333,9.73166667 18.2733333,9.515 19.9733333,9.505 C21.6733333,9.515 23.3733333,9.73166667 24.9733333,10.1683333 C28.7733333,7.62666667 30.4483333,8.15333333 30.4483333,8.15333333 C31.5233333,10.86 30.8483333,12.8583333 30.6483333,13.355 C31.9233333,14.73 32.6983333,16.4833333 32.6983333,18.6283333 C32.6983333,26.1783333 28.0233333,27.84 23.5733333,28.3233333 C24.2733333,28.9133333 24.9233333,30.1183333 24.9233333,31.96 C24.9233333,34.59 24.8983333,36.7033333 24.8983333,37.3416667 C24.8983333,37.8566667 25.2483333,38.4716667 26.2733333,38.275 C34.275,35.695 40,28.325 40,19.6533333 C40,8.8 31.045,0 20,0 L20,0 Z" id="Path"></path>
        </g>
    </g>
</svg>

<svg xmlns="http://www.w3.org/2000/svg" width="40" height="38.334"><path fill="#94A3B8" d="M20 0C8.95 0 0 8.8 0 19.653c0 8.685 5.73 16.05 13.675 18.647 1 .185 1.367-.423 1.367-.945 0-.467-.017-1.703-.025-3.342-5.564 1.185-6.737-2.636-6.737-2.636-.91-2.269-2.225-2.875-2.225-2.875-1.812-1.219.14-1.194.14-1.194 2.008.137 3.063 2.025 3.063 2.025 1.784 3.005 4.682 2.137 5.825 1.635.18-1.271.695-2.136 1.267-2.628-4.442-.492-9.11-2.182-9.11-9.712 0-2.145.775-3.898 2.058-5.273-.225-.497-.9-2.495.175-5.202 0 0 1.675-.526 5.5 2.015 1.6-.436 3.3-.653 5-.663 1.7.01 3.4.227 5 .663 3.8-2.541 5.475-2.015 5.475-2.015 1.075 2.707.4 4.705.2 5.202 1.275 1.375 2.05 3.128 2.05 5.273 0 7.55-4.675 9.212-9.125 9.695.7.59 1.35 1.795 1.35 3.637 0 2.63-.025 4.743-.025 5.382 0 .515.35 1.13 1.375.933C34.275 35.695 40 28.325 40 19.653 40 8.8 31.045 0 20 0Z"/></svg>
